X:12594
T:Paddy Fahy's
C:Paddy Fahy
R:reel
H:Also in Ddor, #398
Z:id:hn-reel-530
M:C|
K:Ador
AB|:c3B c2AB|c2cA BG~G2|c2AB cded|cAAG (3EFG AB|
c2AB cdef|gedc BG~G2|A2 (3Bcd eaaf|1 gedB BAAB:|2 gedB BAAa||
|:a2ea aged|c2cA BG~G2|a2ea aged|eaag ~a3b|
baag agef|gedc BG~G2|A2 (3Bcd eaaf|1 gedB BAAa:|2 gedB BAAB||
